X:1
T:Rnglish Suite IV Sarabande
T:BWV 809
T:J. S. Bach
%%score { ( 1 2 3 ) | ( 4 5 6 ) }
L:1/8
M:3/4
K:F
V:1 treble nm="Harp"
V:2 treble 
V:3 treble 
V:4 bass 
V:5 bass 
V:6 bass 
V:1
 c3/2_e/4d/4 e4 | dc d4 | GA AB Bc | B/4A/4B/4A/4B/4A/4B/4A/4 GA F2 | %4
 A3/2c/4=B/4 c/4B/4c/4B/4c/4B/4c/4B/4 c/4B/4c/4B/4 c |{_e} d/c/d f4 | ed dc c=B | =Bc c4 | %8
 c3/2_e/4d/4 e4 | dc d4 | GA AB Bc | B/4A/4B/4A/4B/4A/4B/4A/4 GA F2 | %12
 A3/2c/4=B/4 c/4B/4c/4B/4c/4B/4c/4B/4 c/4B/4c/4B/4 c |{_e} d/c/d f4 | ed dc c=B | =Bc c4 | %16
 e3/2f/4g/4 f/4e/4f/4e/4f/4e/4f/4e/4 f/4e/4f/4e/4f/4e/4f/4e/4 | %17
 g2 d/4^c/4d/4c/4d/4c/4d/4c/4 d/4c/4d/4c/4d/4c/4d/4c/4 | ba ag g/f/g/e/ | %19
 g/4f/4g/4f/4g/4f/4g/4f/4 ef d2 | ^f3/2a/4g/4 g4 | _e/c/d e/4d/4e/4d/4e/4d/4e/4d/4 e/4d/4e/4d/4 d | %22
 g>a b/4a/4b/4a/4b/4a/4b/4a/4 b/4a/4b/4a/4 g | g2 g4 | =B3/2d/4c/4 c3 c | fA B3 c/d/ | _eg fe de | %27
 d2 cd B2 | GA/G/ G4 | G_A/G/ c/4=B/4c/4B/4c/4B/4c/4B/4 c/4B/4c/4B/4 =A/B/ | cC FB AG | FE F4 | %32
 e3/2f/4g/4 f/4e/4f/4e/4f/4e/4f/4e/4 f/4e/4f/4e/4f/4e/4f/4e/4 | %33
 g2 d/4^c/4d/4c/4d/4c/4d/4c/4 d/4c/4d/4c/4d/4c/4d/4c/4 | ba ag g/f/g/e/ | %35
 g/4f/4g/4f/4g/4f/4g/4f/4 ef d2 | ^f3/2a/4g/4 g4 | _e/c/d e/4d/4e/4d/4e/4d/4e/4d/4 e/4d/4e/4d/4 d | %38
 g>a b/4a/4b/4a/4b/4a/4b/4a/4 b/4a/4b/4a/4 g | g2 g4 | =B3/2d/4c/4 c3 c | fA B3 c/d/ | _eg fe de | %43
 d2 cd B2 | GA/G/ G4 | G_A/G/ c/4=B/4c/4B/4c/4B/4c/4B/4 c/4B/4c/4B/4 =A/B/ | cC FB AG | FE F4 |] %48
V:2
 A2 A4 | BA B4 | E2 F2 E2 | F2 E2 C2 | F2 F4 | F2 d4 | GF FE ED | DE G4 | A2 A4 | BA B4 | %10
 E2 F2 E2 | F2 E2 C2 | F2 F4 | F2 d4 | GF FE ED | DE G4 | c2 c4 | e2 A4 | ^c2 d2 e2 | A2 G2 F2 | %20
 d2 d4 | A2 _A4 | g2 [_eg]2 [d^f]2 | d2 d4 | G2 G4 | A2 F4 | c2 c2 c2 | B2 _E2 D2 | %28
 F2 F2- F/4E/4F/4E/4F/4E/4F/4E/4 | F2 F4 | C z CD CB, | C2 C4 | c2 c4 | e2 A4 | ^c2 d2 e2 | %35
 A2 G2 F2 | d2 d4 | A2 _A4 | g2 [_eg]2 [d^f]2 | d2 d4 | G2 G4 | A2 F4 | c2 c2 c2 | B2 _E2 D2 | %44
 F2 F2- F/4E/4F/4E/4F/4E/4F/4E/4 | F2 F4 | C z CD CB, | C2 C4 |] %48
V:3
 F2 F4 | F_E F4 | x6 | x6 | x6 | z2 G4 | x6 | z2 E4 | F2 F4 | F_E F4 | x6 | x6 | x6 | z2 G4 | x6 | %15
 z2 E4 | x6 | A2 z4 | x6 | x6 | A2 G4 | x6 | x6 | z2 G4 | D2 C4 | F2 z4 | G2 C2 F2 | F2 z4 | x6 | %29
 x6 | G z z F FE | B,2 A,4 | x6 | A2 z4 | x6 | x6 | A2 G4 | x6 | x6 | z2 G4 | D2 C4 | F2 z4 | %42
 G2 C2 F2 | F2 z4 | x6 | x6 | G z z F FE | B,2 A,4 |] %48
V:4
 C2 C4 | B,2 B,4 | C2 C2 C2 | C2 B,2 A,2 | C2 D4 | G,2 G,4 | G,A, A,G, G,2 | G,2 C,4 | C2 C4 | %9
 B,2 B,4 | C2 C2 C2 | C2 B,2 A,2 | C2 D4 | G,2 G,4 | G,A, A,G, G,2 | G,2 C,4 | G2 G4 | E2 E4- | %18
 E2 F2 ^C2 | D2 ^C2 D2 | D2 D4 | C2 =B,4 | C2 C4- | CA, B,4 | G,2 G,4 | C2 B,4 | B,2 B,2 A,2 | %27
 B,2 A,2 B,2 | D2 D2 C2 | B,2 _A,2- A,/4G,/4A,/4G,/4F, | G,A, A,F, C,C, | C,2 F,4 | G2 G4 | %33
 E2 E4- | E2 F2 ^C2 | D2 ^C2 D2 | D2 D4 | C2 =B,4 | C2 C4- | CA, B,4 | G,2 G,4 | C2 B,4 | %42
 B,2 B,2 A,2 | B,2 A,2 B,2 | D2 D2 C2 | B,2 _A,2- A,/4G,/4A,/4G,/4F, | G,A, A,F, C,C, | C,2 F,4 |] %48
V:5
 F,2 F,4 | B,,2 B,,4 | B,2 A,2 G,2 | F,2 C,2 F,,2 | F,3/2_A,/4G,/4 A,4 | =B,,A,, B,,3 C,/D,/ | %6
 E,F, F,G, G,G,, | C,2 C,,4 | F,2 F,4 | B,,2 B,,4 | B,2 A,2 G,2 | F,2 C,2 F,,2 | %12
 F,3/2_A,/4G,/4 A,4 | =B,,A,, B,,3 C,/D,/ | E,F, F,G, G,G,, | C,2 C,,4 | C2 B,4 | ^C2 G,4- | %18
 G,2 F,2 E,2 | D,2 A,2 D2 | C2 B,4 | ^F,2 =F,4 | _E,2 C,2 D,2 | G,2 G,4 | F,2 E,4 | _E,2 D,4 | %26
 C,2 F,2 F,2 | B,2 F,2 B,,2 | =B,,2 C,4 | _D,2 =D,4 | E,F, A,,B,, C,C,, | F,,2 F,,4 | C2 B,4 | %33
 ^C2 G,4- | G,2 F,2 E,2 | D,2 A,2 D2 | C2 B,4 | ^F,2 =F,4 | _E,2 C,2 D,2 | G,2 G,4 | F,2 E,4 | %41
 _E,2 D,4 | C,2 F,2 F,2 | B,2 F,2 B,,2 | =B,,2 C,4 | _D,2 =D,4 | E,F, A,,B,, C,C,, | F,,2 F,,4 |] %48
V:6
 x6 | x6 | x6 | x6 | x6 | x6 | x6 | x6 | x6 | x6 | x6 | x6 | x6 | x6 | x6 | x6 | x6 | A,2 z4 | x6 | %19
 x6 | x6 | x6 | x6 | x6 | x6 | x6 | x6 | x6 | x6 | x6 | x6 | x6 | x6 | A,2 z4 | x6 | x6 | x6 | x6 | %38
 x6 | x6 | x6 | x6 | x6 | x6 | x6 | x6 | x6 | x6 |] %48

